X:1
T:First Species Examples From Fux, Gradus ad Parnassum , Part I (Exercises in two parts) Annotated with all 'vertical' intervals 
T:CC0 1.0 Universal (Public Domain). Mark Gotham and FourScoreAndMore.org waive all rights to this document.
T:CC0 1.0 Universal (Public Domain). Mark Gotham and FourScoreAndMore.org waive all rights to this document.
Z:CC0 1.0 Universal (Public Domain). Mark Gotham and FourScoreAndMore.org waive all rights to this document.
%%score { 1 2 }
L:1/8
M:2/2
K:C
V:1 treble nm="Piano"
V:2 treble nm="Piano"
V:1
"^Fig. 5; Species: 1; Modal final: d; Cantus firmus: Lower" A8 | A8 | G8 | A8 | B8 | c8 | c8 | B8 | %8
w: P5|M3|m3|P5|M3|P5|m3|M3|
 d8 | ^c8 | d8 |] %11
w: M6|M6|P8|
"^Fig. 6 (corrected version); Species: 1; Modal final: d; Cantus firmus: Upper" D8 | F8 | E8 | D8 | %15
w: ||||
 G8 | F8 | A8 | G8 | F8 | E8 | D8 |] %22
w: |||||||
"^Fig. 11; Species: 1; Modal final: e; Cantus firmus: Lower" B8 | c8 | F8 | G8 | A8 | c8 | B8 | %29
w: P5|P8|m3|P5|P8|m3|M3|
 e8 | d8 | e8 |] %32
w: P8|M6|P8|
"^Fig. 12 (corrected version); Species: 1; Modal final: e; Cantus firmus: Upper" E8 | C8 | D8 | %35
w: |||
 C8 | A,8 | A8 | G8 | E8 | F8 | E8 |] %42
w: |||||||
"^Fig. 13; Species: 1; Modal final: f; Cantus firmus: Lower" F8 | E8 | C8 | F8 | F8 | G8 | A8 | %49
w: P1|m3|M6|P1|m3|m3|M3|
 G8 | C8 | F8 | E8 | F8 |] %54
w: P4|M6|P1|m3|P1|
[K:treble-8]"^Fig. 14; Species: 1; Modal final: f; Cantus firmus: Upper" F8 | G8 | A8 | F8 | D8 | %59
w: |||||
 E8 | F8 | c8 | A8 | F8 | G8 | F8 |] %66
w: |||||||
[K:treble]"^Fig. 15 (corrected version); Species: 1; Modal final: g; Cantus firmus: Lower" G8 | %67
w: P8|
 E8 | D8 | G8 | G8 | G8 | A8 | B8 | G8 | c8 | A8 | G8 | ^F8 | G8 |] %80
w: M3|m3|P8|P5|m3|P5|M3|m3|P8|P5|m6|M6|P8|
[K:treble]"^Fig. 21; Species: 1; Modal final: g; Cantus firmus: Upper" G,8 | C8 | B,8 | G,8 | C8 | %85
w: |||||
 E8 | D8 | G8 | E8 | C8 | D8 | B,8 | A,8 | G,8 |] %94
w: |||||||||
"^Fig. 22; Species: 1; Modal final: a; Cantus firmus: Lower" A8 | E8 | G8 | F8 | E8 | C8 | A,8 | %101
w: P8|M3|m6|m3|M3|M3|m6|
 B,8 | B,8 | A,8 | ^G8 | A8 |] %106
w: P4|m3|m3|M6|P8|
[K:treble-8]"^Fig. 23; Species: 1; Modal final: a; Cantus firmus: Upper" A8 | c8 | B8 | d8 | c8 | %111
w: |||||
 e8 | f8 | e8 | d8 | c8 | B8 | A8 |] %118
w: |||||||
V:2
 D8 | F8 | E8 | D8 | G8 | F8 | A8 | G8 | F8 | E8 | D8 |][K:treble-8] D8 | D8 | A8 | F8 | E8 | D8 | %17
w: |||||||||||P8|m10|P5|M6|m10|m10|
 F8 | c8 | d8 | ^c8 | d8 |][K:treble] E8 | C8 | D8 | C8 | A,8 | A8 | G8 | E8 | F8 | E8 |] %32
w: M10|P5|m3|m3|P1|||||||||||
[K:treble-8] E8 | A8 | D8 | E8 | F8 | F8 | c8 | c8 | d8 | e8 |][K:treble] F8 | G8 | A8 | F8 | D8 | %47
w: P8|m3|P8|m6|M3|M10|P5|M3|m3|P1||||||
 E8 | F8 | c8 | A8 | F8 | G8 | F8 |][K:bass] F,8 | E,8 | F,8 | A,8 | _B,8 | G,8 | A,8 | E,8 | F,8 | %63
w: |||||||P1|m3|M3|M3|m6|m3|M3|m6|M3|
 D,8 | E,8 | F,8 |][K:treble-8] G8 | c8 | B8 | G8 | c8 | e8 | d8 | g8 | e8 | c8 | d8 | B8 | A8 | %79
w: m3|m3|P1||||||||||||||
 G8 |][K:treble-8] G8 | A8 | G8 | E8 | E8 | C8 | G8 | B8 | c8 | A8 | ^F8 | G8 | ^F8 | G8 |] %94
w: |P1|m3|M3|m3|m6|M10|P5|m6|M3|m3|m6|M3|m3|P1|
[K:treble] A,8 | C8 | B,8 | D8 | C8 | E8 | F8 | E8 | D8 | C8 | B,8 | A,8 |][K:bass] A,8 | A,8 | %108
w: ||||||||||||P1|m3|
 G,8 | F,8 | E,8 | E,8 | D,8 | C,8 | G,8 | A,8 | ^G,8 | A,8 |] %118
w: M3|M6|m6|P8|m10|M10|P5|m3|m3|P1|

